Newaita-dark/apps/64/utilities-root-terminal.svg

<?xml version="1.0" encoding="UTF-8"?>
<svg xmlns="http://www.w3.org/2000/svg" xmlns:xlink="http://www.w3.org/1999/xlink" width="64pt" height="64pt" viewBox="0 0 64 64" version="1.1">
<defs>
<linearGradient id="linear0" gradientUnits="userSpaceOnUse" x1="254" y1="233.5" x2="254" y2="254.666672" gradientTransform="matrix(0.125012,0,0,0.125012,-1.323063,26.730564)">
<stop offset="0" style="stop-color:rgb(0%,0%,0%);stop-opacity:0.27451;"/>
<stop offset="1" style="stop-color:rgb(0%,0%,0%);stop-opacity:0;"/>
</linearGradient>
<radialGradient id="radial0" gradientUnits="userSpaceOnUse" cx="450.908936" cy="189.579361" fx="450.908936" fy="189.579361" r="21.166656" gradientTransform="matrix(0.000000348341,-0.156265,-0.281277,-0.000000203077,106.907377,127.043663)">
<stop offset="0" style="stop-color:rgb(0%,0%,0%);stop-opacity:0.313725;"/>
<stop offset="0.222222" style="stop-color:rgb(0%,0%,0%);stop-opacity:0.27451;"/>
<stop offset="1" style="stop-color:rgb(0%,0%,0%);stop-opacity:0;"/>
</radialGradient>
<radialGradient id="radial1" gradientUnits="userSpaceOnUse" cx="450.908936" cy="189.579361" fx="450.908936" fy="189.579361" r="21.166656" gradientTransform="matrix(-0.000000348341,0.156265,0.281277,0.000000203077,-43.401308,-15.20196)">
<stop offset="0" style="stop-color:rgb(0%,0%,0%);stop-opacity:0.313725;"/>
<stop offset="0.222222" style="stop-color:rgb(0%,0%,0%);stop-opacity:0.27451;"/>
<stop offset="1" style="stop-color:rgb(0%,0%,0%);stop-opacity:0;"/>
</radialGradient>
<radialGradient id="radial2" gradientUnits="userSpaceOnUse" cx="450.908936" cy="189.579361" fx="450.908936" fy="189.579361" r="21.166656" gradientTransform="matrix(-0.000000348341,-0.156265,0.281277,-0.000000203077,-43.401308,127.043663)">
<stop offset="0" style="stop-color:rgb(0%,0%,0%);stop-opacity:0.313725;"/>
<stop offset="0.222222" style="stop-color:rgb(0%,0%,0%);stop-opacity:0.27451;"/>
<stop offset="1" style="stop-color:rgb(0%,0%,0%);stop-opacity:0;"/>
</radialGradient>
<radialGradient id="radial3" gradientUnits="userSpaceOnUse" cx="450.908936" cy="189.579361" fx="450.908936" fy="189.579361" r="21.166656" gradientTransform="matrix(0.000000348341,0.156265,-0.281277,0.000000203077,106.907373,-15.201961)">
<stop offset="0" style="stop-color:rgb(0%,0%,0%);stop-opacity:0.313725;"/>
<stop offset="0.222222" style="stop-color:rgb(0%,0%,0%);stop-opacity:0.27451;"/>
<stop offset="1" style="stop-color:rgb(0%,0%,0%);stop-opacity:0;"/>
</radialGradient>
<linearGradient id="linear1" gradientUnits="userSpaceOnUse" x1="307.62677" y1="-22.391003" x2="305.954529" y2="-141.414581" gradientTransform="matrix(0.144147,0,0,0.381253,-9.818413,62.352984)">
<stop offset="0" style="stop-color:rgb(93.72549%,32.54902%,31.372549%);stop-opacity:1;"/>
<stop offset="1" style="stop-color:rgb(89.803922%,45.098039%,45.098039%);stop-opacity:1;"/>
</linearGradient>
</defs>
<g id="surface1">
<path style=" stroke:none;fill-rule:nonzero;fill:url(#linear0);" d="M 9.261719 56.066406 L 54.246094 56.066406 L 54.246094 58.566406 L 9.261719 58.566406 Z M 9.261719 56.066406 "/>
<path style=" stroke:none;fill-rule:nonzero;fill:url(#radial0);" d="M 54.246094 55.921875 L 59.535156 55.921875 L 59.535156 53.273438 L 54.246094 53.273438 Z M 54.246094 55.921875 "/>
<path style=" stroke:none;fill-rule:nonzero;fill:url(#radial1);" d="M 9.261719 55.921875 L 3.96875 55.921875 L 3.96875 58.566406 L 9.261719 58.566406 Z M 9.261719 55.921875 "/>
<path style=" stroke:none;fill-rule:nonzero;fill:url(#radial2);" d="M 9.261719 55.921875 L 3.96875 55.921875 L 3.96875 53.273438 L 9.261719 53.273438 Z M 9.261719 55.921875 "/>
<path style=" stroke:none;fill-rule:nonzero;fill:url(#radial3);" d="M 54.246094 55.921875 L 59.535156 55.921875 L 59.535156 58.566406 L 54.246094 58.566406 Z M 54.246094 55.921875 "/>
<path style=" stroke:none;fill-rule:nonzero;fill:url(#linear1);" d="M 6.613281 8.4375 L 56.890625 8.4375 C 58.351562 8.4375 59.535156 9.558594 59.535156 10.9375 L 59.535156 53.570312 C 59.535156 54.949219 58.351562 56.066406 56.890625 56.066406 L 6.613281 56.066406 C 5.152344 56.066406 3.96875 54.949219 3.96875 53.570312 L 3.96875 10.9375 C 3.96875 9.558594 5.152344 8.4375 6.613281 8.4375 Z M 6.613281 8.4375 "/>
<path style=" stroke:none;fill-rule:nonzero;fill:rgb(92.54902%,92.54902%,92.54902%);fill-opacity:0.784314;" d="M 17.3125 25.316406 C 16.792969 24.796875 15.960938 24.796875 15.441406 25.316406 C 14.921875 25.835938 14.921875 26.667969 15.441406 27.1875 L 19.183594 30.929688 L 15.441406 34.671875 C 14.921875 35.191406 14.921875 36.023438 15.441406 36.542969 C 15.960938 37.0625 16.792969 37.0625 17.3125 36.542969 L 21.992188 31.867188 C 22.023438 31.832031 22.054688 31.800781 22.082031 31.765625 C 22.507812 31.246094 22.476562 30.480469 21.992188 29.996094 Z M 17.3125 25.316406 "/>
<path style=" stroke:none;fill-rule:nonzero;fill:rgb(100%,100%,100%);fill-opacity:0.392157;" d="M 6.613281 8.4375 C 5.148438 8.4375 3.96875 9.554688 3.96875 10.9375 L 3.96875 11.597656 C 3.96875 10.214844 5.148438 9.101562 6.613281 9.101562 L 56.890625 9.101562 C 58.355469 9.101562 59.535156 10.214844 59.535156 11.597656 L 59.535156 10.9375 C 59.535156 9.554688 58.355469 8.4375 56.890625 8.4375 Z M 6.613281 8.4375 "/>
<path style=" stroke:none;fill-rule:nonzero;fill:rgb(0%,0%,0%);fill-opacity:0.235294;" d="M 6.613281 56.039062 C 5.148438 56.039062 3.96875 54.925781 3.96875 53.542969 L 3.96875 52.878906 C 3.96875 54.265625 5.148438 55.378906 6.613281 55.378906 L 56.890625 55.378906 C 58.355469 55.378906 59.535156 54.265625 59.535156 52.878906 L 59.535156 53.542969 C 59.535156 54.925781 58.355469 56.039062 56.890625 56.039062 Z M 6.613281 56.039062 "/>
<path style=" stroke:none;fill-rule:nonzero;fill:rgb(6.666667%,6.666667%,6.666667%);fill-opacity:0.588235;" d="M 7.9375 10.929688 C 7.121094 10.929688 6.457031 11.589844 6.457031 12.40625 L 6.457031 49.453125 C 6.457031 50.269531 7.121094 50.933594 7.9375 50.933594 L 55.566406 50.933594 C 56.382812 50.933594 57.046875 50.269531 57.046875 49.453125 L 57.046875 12.40625 C 57.046875 11.589844 56.382812 10.929688 55.566406 10.929688 Z M 7.9375 11.242188 L 55.566406 11.242188 C 56.21875 11.242188 56.734375 11.757812 56.734375 12.40625 L 56.734375 49.453125 C 56.734375 50.101562 56.21875 50.621094 55.566406 50.621094 L 7.9375 50.621094 C 7.289062 50.621094 6.769531 50.101562 6.769531 49.453125 L 6.769531 12.40625 C 6.769531 11.757812 7.289062 11.242188 7.9375 11.242188 Z M 7.9375 11.242188 "/>
<path style=" stroke:none;fill-rule:nonzero;fill:rgb(100%,100%,100%);fill-opacity:0.784314;" d="M 7.9375 11.257812 C 7.304688 11.257812 6.789062 11.773438 6.789062 12.40625 L 6.789062 49.453125 C 6.789062 50.085938 7.304688 50.601562 7.9375 50.601562 L 55.566406 50.601562 C 56.203125 50.601562 56.714844 50.085938 56.714844 49.453125 L 56.714844 12.40625 C 56.714844 11.773438 56.203125 11.257812 55.566406 11.257812 Z M 7.9375 11.570312 L 55.566406 11.570312 C 56.035156 11.570312 56.402344 11.941406 56.402344 12.40625 L 56.402344 49.453125 C 56.402344 49.917969 56.035156 50.289062 55.566406 50.289062 L 7.9375 50.289062 C 7.472656 50.289062 7.101562 49.917969 7.101562 49.453125 L 7.101562 12.40625 C 7.101562 11.941406 7.472656 11.570312 7.9375 11.570312 Z M 7.9375 11.570312 "/>
<path style="fill:none;stroke-width:3;stroke-linecap:round;stroke-linejoin:miter;stroke:rgb(12.941177%,12.941177%,12.941177%);stroke-opacity:1;stroke-miterlimit:4;" d="M 52.901198 -147.506445 L 455.081542 -147.506445 C 466.767926 -147.506445 476.235772 -138.538552 476.235772 -127.508355 L 476.235772 213.521578 C 476.235772 224.551775 466.767926 233.488421 455.081542 233.488421 L 52.901198 233.488421 C 41.214814 233.488421 31.746968 224.551775 31.746968 213.521578 L 31.746968 -127.508355 C 31.746968 -138.538552 41.214814 -147.506445 52.901198 -147.506445 Z M 52.901198 -147.506445 " transform="matrix(0.125012,0,0,0.125012,0,26.877566)"/>
</g>
</svg>

<svg xmlns="http://www.w3.org/2000/svg" width="64pt" height="64pt" viewBox="0 0 64 64"><defs><linearGradient id="a" gradientUnits="userSpaceOnUse" x1="254" y1="233.5" x2="254" y2="254.667" gradientTransform="translate(-1.323 26.73) scale(.12501)"><stop offset="0" stop-opacity=".275"/><stop offset="1" stop-opacity="0"/></linearGradient><radialGradient id="b" gradientUnits="userSpaceOnUse" cx="450.909" cy="189.579" fx="450.909" fy="189.579" r="21.167" gradientTransform="matrix(0 -.15626 -.28128 0 106.907 127.044)"><stop offset="0" stop-opacity=".314"/><stop offset=".222" stop-opacity=".275"/><stop offset="1" stop-opacity="0"/></radialGradient><radialGradient id="c" gradientUnits="userSpaceOnUse" cx="450.909" cy="189.579" fx="450.909" fy="189.579" r="21.167" gradientTransform="matrix(0 .15626 .28128 0 -43.401 -15.202)"><stop offset="0" stop-opacity=".314"/><stop offset=".222" stop-opacity=".275"/><stop offset="1" stop-opacity="0"/></radialGradient><radialGradient id="d" gradientUnits="userSpaceOnUse" cx="450.909" cy="189.579" fx="450.909" fy="189.579" r="21.167" gradientTransform="matrix(0 -.15626 .28128 0 -43.401 127.044)"><stop offset="0" stop-opacity=".314"/><stop offset=".222" stop-opacity=".275"/><stop offset="1" stop-opacity="0"/></radialGradient><radialGradient id="e" gradientUnits="userSpaceOnUse" cx="450.909" cy="189.579" fx="450.909" fy="189.579" r="21.167" gradientTransform="matrix(0 .15626 -.28128 0 106.907 -15.202)"><stop offset="0" stop-opacity=".314"/><stop offset=".222" stop-opacity=".275"/><stop offset="1" stop-opacity="0"/></radialGradient><linearGradient id="f" gradientUnits="userSpaceOnUse" x1="307.627" y1="-22.391" x2="305.955" y2="-141.415" gradientTransform="matrix(.14415 0 0 .38125 -9.818 62.353)"><stop offset="0" stop-color="#ef5350"/><stop offset="1" stop-color="#e57373"/></linearGradient></defs><path d="M9.262 56.066h44.984v2.5H9.262zm0 0" fill="url(#a)"/><path d="M54.246 55.922h5.29v-2.649h-5.29zm0 0" fill="url(#b)"/><path d="M9.262 55.922H3.969v2.644h5.293zm0 0" fill="url(#c)"/><path d="M9.262 55.922H3.969v-2.649h5.293zm0 0" fill="url(#d)"/><path d="M54.246 55.922h5.29v2.644h-5.29zm0 0" fill="url(#e)"/><path d="M6.613 8.438h50.278c1.46 0 2.644 1.12 2.644 2.5V53.57c0 1.38-1.183 2.496-2.644 2.496H6.613c-1.46 0-2.644-1.117-2.644-2.496V10.937c0-1.378 1.183-2.5 2.644-2.5zm0 0" fill="url(#f)"/><path d="M17.313 25.316a1.318 1.318 0 0 0-1.872 0c-.52.52-.52 1.352 0 1.872l3.743 3.742-3.743 3.742c-.52.52-.52 1.351 0 1.871s1.352.52 1.871 0l4.68-4.676c.031-.035.063-.066.09-.101a1.32 1.32 0 0 0-.09-1.77zm0 0" fill="#ececec" fill-opacity=".784"/><path d="M6.613 8.438c-1.465 0-2.644 1.117-2.644 2.5v.66c0-1.383 1.18-2.496 2.644-2.496h50.278c1.464 0 2.644 1.113 2.644 2.496v-.66c0-1.383-1.18-2.5-2.644-2.5zm0 0" fill="#fff" fill-opacity=".392"/><path d="M6.613 56.04c-1.465 0-2.644-1.114-2.644-2.497v-.664c0 1.387 1.18 2.5 2.644 2.5h50.278c1.464 0 2.644-1.113 2.644-2.5v.664c0 1.383-1.18 2.496-2.644 2.496zm0 0" fill-opacity=".235"/><path d="M7.938 10.93c-.817 0-1.481.66-1.481 1.476v37.047c0 .817.664 1.48 1.48 1.48h47.63c.816 0 1.48-.663 1.48-1.48V12.406c0-.816-.664-1.476-1.48-1.476zm0 .312h47.628c.653 0 1.168.516 1.168 1.164v37.047c0 .649-.515 1.168-1.168 1.168H7.937c-.648 0-1.167-.52-1.167-1.168V12.406c0-.648.52-1.164 1.168-1.164zm0 0" fill="#111" fill-opacity=".588"/><path d="M7.938 11.258a1.15 1.15 0 0 0-1.149 1.148v37.047a1.15 1.15 0 0 0 1.149 1.149h47.628c.637 0 1.149-.516 1.149-1.149V12.406c0-.633-.512-1.148-1.149-1.148zm0 .312h47.628a.83.83 0 0 1 .836.836v37.047a.83.83 0 0 1-.836.836H7.937a.832.832 0 0 1-.835-.836V12.406c0-.465.37-.836.835-.836zm0 0" fill="#fff" fill-opacity=".784"/><path d="M6.613 8.437h50.278c1.46 0 2.644 1.122 2.644 2.5V53.57c0 1.38-1.183 2.496-2.644 2.496H6.613c-1.46 0-2.644-1.117-2.644-2.496V10.937c0-1.378 1.183-2.5 2.644-2.5zm0 0" fill="none" stroke-width=".37503000000000003" stroke-linecap="round" stroke="#212121"/></svg>
